X: 33
M: 6/8
L: 1/8
K: D
V: 1
|: FAc |\
dAf gea | f2d FAc | dAf gea | d3 A2A |\
[K:Dm]\
|: "Mineur"a2a |\
f2f {e}dcd | B3 g2g | e2e {d}cBc | A3 f2f |\
d2d {c}BAB | G3 g2f | {f}e2d ^c2d | e3 :|
|: c2c |\
f2f fef | a3 A2A | d2d d^cd | e3 A2f |\
f2e e2d | d2^c c2d | BAG FGE | D3 :|
V: 2 clef=bass middle=d
d2d |\
d3 d2a | d3 zza | f2d a2A | dfa d2d | d3 d2a | d3 zza |
f2d a2A | d3 :||: d2d | d3 e2A | d2D D2d | d3 e2A | d2d f2f |
g2d c2A | d2g f2d | a2d a2A | d3 :|[K:=f=c][K:Dm]|: "Mineur" z2z | d'2d' b2b | gfg e3 |
c'2c' a2a | fef d3 | b2b g2g | e2d ^c2d | g2f e2d | A3 :||: z2z | d2d a2f |
c3 z2z | d2d f2d | A2A A2z | d2z A2z | A2z A2d | G3 A3 | d3 :|


